flaticon/constructions/parquet.svg

<svg xmlns="http://www.w3.org/2000/svg" width="32" height="32" viewBox="0 0 24 24">
    <path d="M8.800781 16.800781C8.558594 16.800781 8.398438 16.960938 8.398438 17.199219 8.398438 17.441406 8.558594 17.601562 8.800781 17.601562 9.039062 17.601562 9.199219 17.441406 9.199219 17.199219 9.199219 16.960938 9.039062 16.800781 8.800781 16.800781zM7.199219 16.800781C6.960938 16.800781 6.800781 16.960938 6.800781 17.199219 6.800781 17.441406 6.960938 17.601562 7.199219 17.601562 7.441406 17.601562 7.601562 17.441406 7.601562 17.199219 7.601562 16.960938 7.441406 16.800781 7.199219 16.800781zM7.199219 15.199219C7.441406 15.199219 7.601562 15.039062 7.601562 14.800781 7.601562 14.558594 7.441406 14.398438 7.199219 14.398438 7 14.398438 6.800781 14.601562 6.800781 14.800781 6.800781 15.039062 6.960938 15.199219 7.199219 15.199219zM8.800781 15.199219C9.039062 15.199219 9.199219 15.039062 9.199219 14.800781 9.199219 14.558594 9.039062 14.398438 8.800781 14.398438 8.558594 14.398438 8.398438 14.601562 8.398438 14.800781 8.398438 15.039062 8.558594 15.199219 8.800781 15.199219zM20.800781 13.199219C21.039062 13.199219 21.199219 13.039062 21.199219 12.800781 21.199219 12.558594 21.039062 12.398438 20.800781 12.398438 20.558594 12.398438 20.398438 12.558594 20.398438 12.800781 20.398438 13.039062 20.558594 13.199219 20.800781 13.199219zM19.199219 13.199219C19.441406 13.199219 19.601562 13.039062 19.601562 12.800781 19.601562 12.558594 19.441406 12.398438 19.199219 12.398438 18.960938 12.398438 18.800781 12.558594 18.800781 12.800781 18.800781 13.039062 18.960938 13.199219 19.199219 13.199219zM19.199219 10.800781C19.441406 10.800781 19.601562 10.640625 19.601562 10.398438 19.601562 10.160156 19.441406 10 19.199219 10 19 10 18.800781 10.199219 18.800781 10.398438 18.800781 10.640625 18.960938 10.800781 19.199219 10.800781zM20.800781 10.800781C21.039062 10.800781 21.199219 10.640625 21.199219 10.398438 21.199219 10.160156 21.039062 10 20.800781 10 20.601562 10 20.398438 10.199219 20.398438 10.398438 20.398438 10.640625 20.558594 10.800781 20.800781 10.800781zM20.800781 10.800781"/>
    <path d="M 22 0 L 2 0 C 1.761719 0 1.601562 0.160156 1.601562 0.398438 L 1.601562 23.601562 C 1.601562 23.839844 1.761719 24 2 24 L 22 24 C 22.238281 24 22.398438 23.839844 22.398438 23.601562 L 22.398438 0.398438 C 22.398438 0.160156 22.238281 0 22 0 Z M 21.601562 11.199219 L 18.398438 11.199219 L 18.398438 0.800781 L 21.601562 0.800781 Z M 13.601562 7.199219 L 10.398438 7.199219 L 10.398438 0.800781 L 13.601562 0.800781 Z M 9.601562 7.601562 L 9.601562 15.601562 L 6.398438 15.601562 L 6.398438 0.800781 L 9.601562 0.800781 Z M 2.398438 0.800781 L 5.601562 0.800781 L 5.601562 23.199219 L 2.398438 23.199219 Z M 6.398438 16.398438 L 9.601562 16.398438 L 9.601562 23.199219 L 6.398438 23.199219 Z M 10.398438 16 L 10.398438 8 L 13.601562 8 L 13.601562 23.199219 L 10.398438 23.199219 Z M 14.398438 7.601562 L 14.398438 0.800781 L 17.601562 0.800781 L 17.601562 23.199219 L 14.398438 23.199219 Z M 21.601562 23.199219 L 18.398438 23.199219 L 18.398438 12 L 21.601562 12 Z M 21.601562 23.199219"/>
    <path d="M12.800781 8.398438C12.558594 8.398438 12.398438 8.558594 12.398438 8.800781 12.398438 9.039062 12.558594 9.199219 12.800781 9.199219 13.039062 9.199219 13.199219 9.039062 13.199219 8.800781 13.199219 8.558594 13.039062 8.398438 12.800781 8.398438zM11.199219 8.398438C10.960938 8.398438 10.800781 8.558594 10.800781 8.800781 10.800781 9.039062 10.960938 9.199219 11.199219 9.199219 11.441406 9.199219 11.601562 9.039062 11.601562 8.800781 11.601562 8.558594 11.441406 8.398438 11.199219 8.398438zM11.199219 6.800781C11.441406 6.800781 11.601562 6.640625 11.601562 6.398438 11.601562 6.160156 11.441406 6 11.199219 6 10.960938 6 10.800781 6.199219 10.800781 6.398438 10.800781 6.640625 10.960938 6.800781 11.199219 6.800781zM12.800781 6.800781C13.039062 6.800781 13.199219 6.640625 13.199219 6.398438 13.199219 6.160156 13.039062 6 12.800781 6 12.558594 6 12.398438 6.199219 12.398438 6.398438 12.398438 6.640625 12.558594 6.800781 12.800781 6.800781zM4.800781 1.199219C4.558594 1.199219 4.398438 1.398438 4.398438 1.601562 4.398438 1.800781 4.558594 2 4.800781 2 5.039062 2 5.199219 1.839844 5.199219 1.601562 5.199219 1.359375 5.039062 1.199219 4.800781 1.199219zM3.199219 1.199219C2.960938 1.199219 2.800781 1.398438 2.800781 1.601562 2.800781 1.800781 2.960938 2 3.199219 2 3.441406 2 3.601562 1.839844 3.601562 1.601562 3.601562 1.359375 3.441406 1.199219 3.199219 1.199219zM4.800781 22C4.558594 22 4.398438 22.160156 4.398438 22.398438 4.398438 22.640625 4.558594 22.800781 4.800781 22.800781 5.039062 22.800781 5.199219 22.640625 5.199219 22.398438 5.199219 22.160156 5.039062 22 4.800781 22zM3.199219 22C2.960938 22 2.800781 22.160156 2.800781 22.398438 2.800781 22.640625 2.960938 22.800781 3.199219 22.800781 3.441406 22.800781 3.601562 22.640625 3.601562 22.398438 3.601562 22.160156 3.441406 22 3.199219 22zM16.800781 1.199219C16.558594 1.199219 16.398438 1.359375 16.398438 1.601562 16.398438 1.839844 16.558594 2 16.800781 2 17.039062 2 17.199219 1.839844 17.199219 1.601562 17.199219 1.359375 17.039062 1.199219 16.800781 1.199219zM15.199219 1.199219C14.960938 1.199219 14.800781 1.359375 14.800781 1.601562 14.800781 1.839844 14.960938 2 15.199219 2 15.441406 2 15.601562 1.839844 15.601562 1.601562 15.601562 1.359375 15.441406 1.199219 15.199219 1.199219zM16.800781 22C16.558594 22 16.398438 22.160156 16.398438 22.398438 16.398438 22.640625 16.558594 22.800781 16.800781 22.800781 17.039062 22.800781 17.199219 22.640625 17.199219 22.398438 17.199219 22.160156 17.039062 22 16.800781 22zM15.199219 22C14.960938 22 14.800781 22.160156 14.800781 22.398438 14.800781 22.640625 14.960938 22.800781 15.199219 22.800781 15.441406 22.800781 15.601562 22.640625 15.601562 22.398438 15.601562 22.160156 15.441406 22 15.199219 22zM15.199219 22"/>
</svg>

<svg xmlns="http://www.w3.org/2000/svg" width="32" height="32" viewBox="0 0 24 24">
    <path d="M8.8 16.8c-.241 0-.402.16-.402.4 0 .241.16.402.403.402.238 0 .398-.16.398-.403 0-.238-.16-.398-.398-.398zm0 0M7.2 16.8c-.24 0-.4.16-.4.4 0 .241.16.402.4.402.241 0 .402-.16.402-.403 0-.238-.16-.398-.403-.398zm0 0M7.2 15.2c.241 0 .402-.16.402-.4 0-.241-.16-.402-.403-.402-.199 0-.398.204-.398.403 0 .238.16.398.398.398zm0 0M8.8 15.2c.24 0 .4-.16.4-.4 0-.241-.16-.402-.4-.402a.404.404 0 0 0-.402.403c0 .238.16.398.403.398zm0 0M20.8 13.2c.24 0 .4-.16.4-.4 0-.241-.16-.402-.4-.402-.241 0-.402.16-.402.403 0 .238.16.398.403.398zm0 0M19.2 13.2c.241 0 .402-.16.402-.4 0-.241-.16-.402-.403-.402-.238 0-.398.16-.398.403 0 .238.16.398.398.398zm0 0M19.2 10.8c.241 0 .402-.16.402-.402 0-.238-.16-.398-.403-.398-.199 0-.398.2-.398.398 0 .243.16.403.398.403zm0 0M20.8 10.8c.24 0 .4-.16.4-.402 0-.238-.16-.398-.4-.398-.198 0-.402.2-.402.398 0 .243.16.403.403.403zm0 0"/>
    <path d="M22 0H2c-.238 0-.398.16-.398.398v23.204c0 .238.16.398.398.398h20c.238 0 .398-.16.398-.398V.398C22.398.16 22.238 0 22 0zm-.398 11.2h-3.204V.8h3.204zm-8-4h-3.204V.8h3.204zm-4 .402v8H6.398V.8h3.204zM2.398.8h3.204v22.398H2.398zm4 15.597h3.204V23.2H6.398zm4-.398V8h3.204v15.2h-3.204zm4-8.398V.8h3.204v22.398h-3.204zm7.204 15.597h-3.204V12h3.204zm0 0"/>
    <path d="M12.8 8.398c-.241 0-.402.16-.402.403 0 .238.16.398.403.398.238 0 .398-.16.398-.398 0-.242-.16-.403-.398-.403zm0 0M11.2 8.398c-.24 0-.4.16-.4.403 0 .238.16.398.4.398.241 0 .402-.16.402-.398 0-.242-.16-.403-.403-.403zm0 0M11.2 6.8c.241 0 .402-.16.402-.402 0-.238-.16-.398-.403-.398a.4.4 0 0 0-.398.398c0 .243.16.403.398.403zm0 0M12.8 6.8c.24 0 .4-.16.4-.402 0-.238-.16-.398-.4-.398a.4.4 0 0 0-.402.398c0 .243.16.403.403.403zm0 0M4.8 1.2a.4.4 0 0 0 0 .8c.24 0 .4-.16.4-.398 0-.243-.16-.403-.4-.403zm0 0M3.2 1.2a.4.4 0 0 0 0 .8c.241 0 .402-.16.402-.398 0-.243-.16-.403-.403-.403zm0 0M4.8 22c-.241 0-.402.16-.402.398 0 .243.16.403.403.403.238 0 .398-.16.398-.403 0-.238-.16-.398-.398-.398zm0 0M3.2 22c-.24 0-.4.16-.4.398 0 .243.16.403.4.403.241 0 .402-.16.402-.403 0-.238-.16-.398-.403-.398zm0 0M16.8 1.2c-.241 0-.402.16-.402.402 0 .238.16.398.403.398.238 0 .398-.16.398-.398 0-.243-.16-.403-.398-.403zm0 0M15.2 1.2c-.24 0-.4.16-.4.402 0 .238.16.398.4.398.241 0 .402-.16.402-.398 0-.243-.16-.403-.403-.403zm0 0M16.8 22c-.241 0-.402.16-.402.398 0 .243.16.403.403.403.238 0 .398-.16.398-.403 0-.238-.16-.398-.398-.398zm0 0M15.2 22c-.24 0-.4.16-.4.398 0 .243.16.403.4.403.241 0 .402-.16.402-.403 0-.238-.16-.398-.403-.398zm0 0"/>
</svg>
